X:35
T:Pendle
M:2/4
L:1/8
C:Taz Tarry
S:Copyright B.Tarry, 1987
Q:1/4=100
K:D
"Use drone on A or D strings (as appropriate) throughout the A part"
|:(FA BA)|(FA BA)|(FA BA)|F2 D2|(FA BA)|(FA BA)|(FA BA)|d4:|
|:fa fe|d2 ef|e2 cA|B2 A2|fa fe|d2 ef|e2 cA|B4:|

